X: 6
T:North Wind, The (#56)
M:4/4
L:1/8
Q:140
S:Rice-Walsh manuscript
R:March
K:G
(3DEF|G2 GG GBdB|c2 A2 A2 c2|BGBd gdBG|d2 de dcBA|
G2 GG GBdB|c2 A2 A2 c2|(3BdB GB (3AcA FA|G2 GG G2||
(3def|g2 ga bgdB|c2 A2 A2 fg|a2 ab agfe|dgfe dcBA|
G2 GG GBdB|c2 A2 A2 c2|(3BdB GB (3AcA FA|G2 GG G2||

